packages/bezier-icons/icons/pin-off.svg

<svg width="24" height="24" viewBox="0 0 24 24" fill="none" xmlns="http://www.w3.org/2000/svg">
<path d="M3.00001 2.5C2.60949 2.89053 2.60949 3.52369 3.00001 3.91421L20.0858 21C20.4763 21.3905 21.1095 21.3905 21.5 21C21.8905 20.6095 21.8905 19.9763 21.5 19.5858L15.463 13.5487C15.5017 13.5022 15.5426 13.4573 15.5858 13.4142L17.1537 11.8463C17.3812 11.6188 17.6602 11.4495 17.9671 11.3529L19.7075 10.8046C21.1395 10.3536 21.5825 8.5444 20.5209 7.48282L16.5284 3.49039C15.4707 2.43261 13.6685 2.86802 13.2103 4.29206L12.648 6.04C12.5507 6.34232 12.3829 6.61712 12.1583 6.84168L10.5858 8.41421C10.5426 8.45734 10.4977 8.4983 10.4512 8.53702L4.41423 2.5C4.0237 2.10948 3.39054 2.10948 3.00001 2.5Z" fill="#313234"/>
<path d="M5.39729 9H6.08579L15 17.9142V18.7098C15 19.2175 14.8069 19.7062 14.4599 20.0768L14.3475 20.1968C13.9612 20.6093 13.3101 20.62 12.9105 20.2204L9.06616 16.3761L3.85319 21.5882C3.4627 21.9786 2.82965 21.9786 2.43919 21.5881C2.04871 21.1977 2.04871 20.5646 2.43919 20.1741L7.65216 14.9611L3.84436 11.1533C3.46977 10.7787 3.4523 10.177 3.80451 9.78131L3.90339 9.67024C4.2829 9.24388 4.82649 9 5.39729 9Z" fill="#313234"/>
</svg>

<svg xmlns="http://www.w3.org/2000/svg" width="24" height="24" fill="none" viewBox="0 0 24 24"><path fill="#313234" d="M3 2.5a1 1 0 0 0 0 1.414L20.086 21a1 1 0 0 0 1.414-1.414l-6.037-6.037a2 2 0 0 1 .123-.135l1.568-1.568a2 2 0 0 1 .813-.493l1.74-.548c1.433-.451 1.875-2.26.814-3.322L16.528 3.49c-1.057-1.057-2.86-.622-3.318.802l-.562 1.748a2 2 0 0 1-.49.802l-1.572 1.572a2 2 0 0 1-.135.123L4.414 2.5A1 1 0 0 0 3 2.5M5.397 9h.689L15 17.914v.796a2 2 0 0 1-.54 1.367l-.113.12a1 1 0 0 1-1.436.023l-3.845-3.844-5.213 5.212a1 1 0 0 1-1.414-1.414l5.213-5.213-3.808-3.808a1 1 0 0 1-.04-1.372l.1-.11A2 2 0 0 1 5.396 9"/></svg>
